packages/foundations/assets/icons/functional/images/business & payment/discount_16_filled.svg

<svg width="16" height="16" viewBox="0 0 16 16" fill="none" xmlns="http://www.w3.org/2000/svg">
<g clip-path="url(#clip0_2202_1442)">
<path fill-rule="evenodd" clip-rule="evenodd" d="M8.03198 1.373C8.51998 1.356 8.99098 1.6 9.29898 1.973L9.77098 2.558L10.534 2.38C10.664 2.347 10.794 2.331 10.924 2.331C11.801 2.331 12.548 3.013 12.581 3.891L12.629 4.638L13.344 4.93C13.978 5.206 14.4 5.807 14.4 6.49C14.4 6.798 14.303 7.107 14.124 7.383L13.718 8L14.124 8.666C14.286 8.942 14.384 9.251 14.384 9.576C14.384 10.242 13.961 10.859 13.328 11.103L12.629 11.363L12.564 12.143C12.5 12.954 11.834 13.685 10.908 13.685C10.761 13.685 10.615 13.669 10.485 13.637L9.77098 13.442L9.25098 14.026C8.90998 14.449 8.53598 14.611 7.96798 14.627C7.47998 14.644 7.00898 14.4 6.70098 14.027L6.22898 13.442L5.46598 13.62C5.33598 13.653 5.20598 13.669 5.07598 13.669C4.19898 13.669 3.45198 12.987 3.41898 12.109L3.37098 11.362L2.65598 11.07C2.00598 10.794 1.59998 10.21 1.59998 9.527C1.59998 9.202 1.69698 8.893 1.87598 8.617L2.28198 8L1.87598 7.318C1.70731 7.05022 1.61723 6.74046 1.61598 6.424C1.61598 5.758 2.03898 5.141 2.67198 4.897L3.37098 4.637L3.45098 3.857C3.48398 2.981 4.23098 2.315 5.09198 2.315C5.23898 2.315 5.38498 2.331 5.51498 2.363L6.22898 2.558L6.73298 1.958C7.08998 1.568 7.46298 1.388 8.03298 1.373H8.03198ZM9.59398 5.263L5.27998 9.61L6.39998 10.73L10.731 6.4L9.59398 5.263ZM9.91698 9.121C9.70594 9.12126 9.50363 9.20521 9.35441 9.35443C9.20519 9.50365 9.12124 9.70597 9.12098 9.917C9.11939 10.0767 9.1654 10.2332 9.25314 10.3667C9.34087 10.5001 9.46635 10.6044 9.61358 10.6662C9.76082 10.7281 9.92313 10.7447 10.0798 10.7139C10.2365 10.6831 10.3805 10.6064 10.4934 10.4935C10.6064 10.3806 10.6831 10.2366 10.7139 10.0799C10.7446 9.92316 10.728 9.76084 10.6662 9.61361C10.6044 9.46637 10.5001 9.34089 10.3666 9.25316C10.2332 9.16542 10.0767 9.11942 9.91698 9.121ZM6.08298 5.27C5.86961 5.26788 5.66414 5.3506 5.51177 5.49997C5.35939 5.64935 5.2726 5.85313 5.27048 6.0665C5.26835 6.27986 5.35108 6.48533 5.50045 6.63771C5.64982 6.79008 5.85361 6.87688 6.06698 6.879C6.17262 6.88005 6.27744 6.86028 6.37545 6.82082C6.47346 6.78136 6.56274 6.72298 6.63819 6.64902C6.71363 6.57506 6.77378 6.48696 6.81518 6.38976C6.85658 6.29255 6.87843 6.18815 6.87948 6.0825C6.88053 5.97685 6.86076 5.87203 6.8213 5.77402C6.78184 5.67601 6.72346 5.58673 6.6495 5.51129C6.57554 5.43584 6.48744 5.3757 6.39024 5.3343C6.29303 5.2929 6.18862 5.27105 6.08298 5.27Z" fill="#1A1C1F"/>
</g>
<defs>
<clipPath id="clip0_2202_1442">
<rect width="16" height="16" fill="white"/>
</clipPath>
</defs>
</svg>

<svg xmlns="http://www.w3.org/2000/svg" width="16" height="16" fill="none"><g clip-path="url(#a)"><path fill="#1A1C1F" fill-rule="evenodd" d="M8.032 1.373c.488-.017.959.227 1.267.6l.472.585.763-.178q.195-.05.39-.049c.877 0 1.624.682 1.657 1.56l.048.747.715.292c.634.276 1.056.877 1.056 1.56 0 .308-.097.617-.276.893L13.718 8l.406.666c.162.276.26.585.26.91 0 .666-.423 1.283-1.056 1.527l-.699.26-.065.78c-.064.811-.73 1.542-1.656 1.542-.147 0-.293-.016-.423-.048l-.714-.195-.52.584c-.341.423-.715.585-1.283.601-.488.017-.959-.227-1.267-.6l-.472-.585-.763.178q-.195.05-.39.049c-.877 0-1.624-.682-1.657-1.56l-.048-.747-.715-.292c-.65-.276-1.056-.86-1.056-1.543 0-.325.097-.634.276-.91L2.282 8l-.406-.682a1.7 1.7 0 0 1-.26-.894c0-.666.423-1.283 1.056-1.527l.699-.26.08-.78c.033-.876.78-1.542 1.641-1.542.147 0 .293.016.423.048l.714.195.504-.6c.357-.39.73-.57 1.3-.585zm1.562 3.89L5.28 9.61l1.12 1.12 4.331-4.33zm.323 3.858a.797.797 0 0 0-.796.796.804.804 0 1 0 .796-.796M6.083 5.27a.805.805 0 1 0-.016 1.609.805.805 0 0 0 .016-1.609" clip-rule="evenodd"/></g><defs><clipPath id="a"><path fill="#fff" d="M0 0h16v16H0z"/></clipPath></defs></svg>
